X:1
T:Rêverie
C:Claude Debussy
M:4/4
L:1/4
Q:1/4=60
K:F
% Rêverie (1890) — opening A section, dreamy and flowing, F major
% Range: C4–C5 (C–c in K:F). B = Bb throughout (key sig).
% Pickup bar: 1 beat.
C | F A c A | F A c A | G B c B | G B c B |
F A c A | F G A B | c B A G | F3 C |
F A c A | F G A B | c A G F | G2 F2 |]
